X: 33796
T: Ray's Classic
R: polka
M: 2/4
K: Amajor
|:A>B AE|FA EA|FB BA/B/|cB Bc/B/|
A>B AE|FA EA|FB Bc/B/|1 A2 Ac/B/:|2 A2 A/B/c/d/||
|:e2 eA|f2 f2|Bf Bf|g2 g2|
cg cg|a2 g>f|ec BA/B/|1 cA Ac:|2 cA Ac/B/||

